X:1
T:Title
%%score { 1 | ( 2 3 ) }
L:1/8
M:4/4
K:Bb
V:1 treble nm="Grand Piano"
V:2 bass 
V:3 bass 
V:1
 z4 z2[Q:1/4=100] [DF]>[DF] | [DB]2 [DF]>[DF] [DB]2 [DF]2 | [B,D]3 [CE] [DF]2 [DF]2 | %3
 [EG][EB][FA][EG] [DF]2 [FB]2 | c6 c>c | [Fd]2 [DFB]>[DFB] [DF]2 [DF]>[DF] | %6
 [EG]2 [FA]2 [FB]2 [Fc]2 | [Fd]2 [EGc]>[EGc] [DFB]2 .[CFA]2 |[M:3/4] [DFB]6 |[M:1/4] [DFB]>[EFc] | %10
[M:4/4] [FBd]2 [FBd]<[FBd] [EFc]2 [DFB]2 | [B,EG]3 [B,EG] [B,FB]2 [B,FB]>[B,FB] | %12
 [=Ec]2 [EG]>[EG] [Ec]2 [GB]2 |[M:9/8] A2 B- B c2- cB>c |[M:4/4] d2 d>d c2 B>[FB] | %15
 [EG]2 [FA]2 [FB]2 [Fc]2 | [Fd]2 [EGc]>[EGc] [DFB]2 .[CFA]2 |[M:3/4] [DFB]6 |] %18
V:2
 z4 z2 [B,,B,]>[B,,B,] | [B,,F,]2 [B,,B,]>[B,,B,] [B,,F,]2 [B,,B,]2 | %2
 [B,,F,]3 [B,,F,] [B,,B,]2 [B,,B,]2 | [E,B,][E,G,][E,A,][E,B,] [B,,B,]2 [D,B,]2 | %4
 [F,A,F]6 [F,A,E]>[F,A,F] | [B,,B,]2 B,,>B,, [B,,B,]2 [B,,B,]>[B,,B,] | %6
 [E,B,]2 [E,C]2 [D,B,]2 [F,A,]2 | B,2 E,>E, F,2 z D |[M:3/4] B,,6 |[M:1/4] B,>B, | %10
[M:4/4] B,2 B,<B, B,2 B,,2 | E,3 E, D,2 D,>D, | [C,G,]2 [C,C]>[C,C] [C,G,]2 [=E,C]2 | %13
[M:9/8][K:treble] [CF]2- [G,CF]- [G,C-F-] [A,CF]2- [A,-CF]/A,<[B,DF][B,EF]/ | %14
[M:4/4] [B,FB]2 [B,FB]>[B,FB] [B,EF]2 [B,DF]>[K:bass][D,B,] | [E,B,]2 [E,C]2 [D,B,]2 [F,A,]2 | %16
 B,2 E,>E, F,2 z E |[M:3/4] B,,6 |] %18
V:3
 x8 | x8 | x8 | x8 | x8 | x8 | x8 | z4 z2 F,2 |[M:3/4] x6 |[M:1/4] x2 |[M:4/4] x8 | x8 | x8 | %13
[M:9/8][K:treble] .F,3 z3 z3 |[M:4/4] x15/2[K:bass] x/ | x8 | z4 z2 F,2 |[M:3/4] x6 |] %18

